icons/svg/old_road_shields/h_unc_shield7.svg

<svg width="60" height="17" viewBox="0 0 60 17" fill="none" xmlns="http://www.w3.org/2000/svg">
<g clip-path="url(#clip0)">
<path fill-rule="evenodd" clip-rule="evenodd" d="M7.827 -0.0119934H51.57C55.884 -0.0119934 59.399 3.53601 59.399 7.85701V8.71601C59.399 13.036 55.884 16.585 51.57 16.585H7.827C3.513 16.585 -0.0019989 13.036 -0.0019989 8.71601V7.85701C-0.0019989 3.53601 3.513 -0.0119934 7.827 -0.0119934Z" fill="#D8D8D8"/>
<path fill-rule="evenodd" clip-rule="evenodd" d="M8.027 1.07501H51.427C55.17 1.07501 58.227 4.13701 58.227 7.85701V8.63001C58.227 12.378 55.17 15.441 51.427 15.441H8.027C4.313 15.441 1.256 12.379 1.256 8.63001V7.85701C1.255 4.13801 4.313 1.07501 8.027 1.07501Z" fill="white"/>
<path fill-rule="evenodd" clip-rule="evenodd" d="M8.56999 2.42001H50.828C53.885 2.42001 56.37 4.91001 56.37 7.97201V8.60101C56.37 11.663 53.885 14.154 50.828 14.154H8.56999C5.51299 14.154 3.02699 11.664 3.02699 8.60101V7.97201C3.02699 4.91001 5.51299 2.42001 8.56999 2.42001Z" fill="#D8D8D8"/>
</g>
<defs>
<clipPath id="clip0">
<path d="M0 0H59.396V16.574H0V0Z" fill="white"/>
</clipPath>
</defs>
</svg>

<?xml version="1.0" encoding="UTF-8" standalone="no"?>
<!-- Generator: Adobe Illustrator 16.0.4, SVG Export Plug-In . SVG Version: 6.00 Build 0)  -->

<svg
   xmlns:dc="http://purl.org/dc/elements/1.1/"
   xmlns:cc="http://creativecommons.org/ns#"
   xmlns:rdf="http://www.w3.org/1999/02/22-rdf-syntax-ns#"
   xmlns:svg="http://www.w3.org/2000/svg"
   xmlns="http://www.w3.org/2000/svg"
   xmlns:sodipodi="http://sodipodi.sourceforge.net/DTD/sodipodi-0.dtd"
   xmlns:inkscape="http://www.inkscape.org/namespaces/inkscape"
   version="1.1"
   id="Слой_1"
   x="0px"
   y="0px"
   width="59.396px"
   height="16.574px"
   viewBox="0 0 59.396 16.574"
   enable-background="new 0 0 59.396 16.574"
   xml:space="preserve"
   inkscape:version="0.48.4 r9939"
   sodipodi:docname="h_tru_shield7.svg"><metadata
     id="metadata13"><rdf:RDF><cc:Work
         rdf:about=""><dc:format>image/svg+xml</dc:format><dc:type
           rdf:resource="http://purl.org/dc/dcmitype/StillImage" /><dc:title></dc:title></cc:Work></rdf:RDF></metadata><defs
     id="defs11" /><sodipodi:namedview
     pagecolor="#ffffff"
     bordercolor="#666666"
     borderopacity="1"
     objecttolerance="10"
     gridtolerance="10"
     guidetolerance="10"
     inkscape:pageopacity="0"
     inkscape:pageshadow="2"
     inkscape:window-width="640"
     inkscape:window-height="480"
     id="namedview9"
     showgrid="false"
     inkscape:zoom="7.0880194"
     inkscape:cx="29.698"
     inkscape:cy="8.2869997"
     inkscape:window-x="0"
     inkscape:window-y="0"
     inkscape:window-maximized="0"
     inkscape:current-layer="Слой_1" /><path
     fill-rule="evenodd"
     clip-rule="evenodd"
     fill="#E7687D"
     d="M7.827-0.012H51.57c4.314,0,7.829,3.548,7.829,7.869v0.859  c0,4.32-3.515,7.869-7.829,7.869H7.827c-4.314,0-7.829-3.549-7.829-7.869V7.857C-0.002,3.536,3.513-0.012,7.827-0.012L7.827-0.012z"
     id="path3"
     style="color:#000000;fill:#d8d8d8;fill-opacity:1;fill-rule:evenodd;stroke-width:1.00000004;stroke-linecap:butt;stroke-linejoin:miter;stroke-miterlimit:4;stroke-opacity:1;stroke-dasharray:none;stroke-dashoffset:0;marker:none;visibility:visible;display:inline;overflow:visible;enable-background:accumulate" /><path
     fill-rule="evenodd"
     clip-rule="evenodd"
     fill="#FFFFFF"
     d="M8.027,1.075h43.4c3.743,0,6.8,3.062,6.8,6.782V8.63  c0,3.748-3.057,6.811-6.8,6.811h-43.4c-3.714,0-6.771-3.062-6.771-6.811V7.857C1.255,4.138,4.313,1.075,8.027,1.075L8.027,1.075z"
     id="path5" /><path
     fill-rule="evenodd"
     clip-rule="evenodd"
     fill="#E7687D"
     d="M8.57,2.42h42.258c3.057,0,5.542,2.49,5.542,5.552v0.629  c0,3.062-2.485,5.553-5.542,5.553H8.57c-3.057,0-5.543-2.49-5.543-5.553V7.972C3.027,4.91,5.513,2.42,8.57,2.42L8.57,2.42z"
     id="path7"
     style="color:#000000;fill:#d8d8d8;fill-opacity:1;fill-rule:evenodd;stroke-width:1.00000004;stroke-linecap:butt;stroke-linejoin:miter;stroke-miterlimit:4;stroke-opacity:1;stroke-dasharray:none;stroke-dashoffset:0;marker:none;visibility:visible;display:inline;overflow:visible;enable-background:accumulate" /></svg>
